X:01
T: Durham Market
L: 1/8
R: 2/4
K: D Major
||:FA BA|D>E FF|E F/E/ DE|FD DE|FA BA|D>E FF|EF GA|BA A2:||Bd AF|Bd2|FA/F/ED/E/|FEF/G/A|Bd AF|Bd d>A|B/A/G/F/ E/F/G/A/|Bc BA|Bd AF|Bd d2|F A/F/ E D/E/|FE F/G/A|BdAFBdd>A|B/A/G/F/E/F/G/A/|Bc d2||
